assets/svg/icon_search_followers.svg

<svg width="24" height="24" viewBox="0 0 24 24" fill="none" xmlns="http://www.w3.org/2000/svg">
<g id="icon/search_followers">
<path id="Vector" d="M16.4243 10.0757C16.1899 9.84142 15.8101 9.84142 15.5757 10.0757C15.3414 10.3101 15.3414 10.6899 15.5757 10.9243L16.4243 10.0757ZM18 12.5L17.5757 12.9243C17.8101 13.1586 18.1899 13.1586 18.4243 12.9243L18 12.5ZM21.9243 9.42426C22.1586 9.18995 22.1586 8.81005 21.9243 8.57574C21.6899 8.34142 21.3101 8.34142 21.0757 8.57574L21.9243 9.42426ZM13 7.2C13 8.63594 11.8359 9.8 10.4 9.8V11C12.4987 11 14.2 9.29868 14.2 7.2H13ZM10.4 9.8C8.96406 9.8 7.8 8.63594 7.8 7.2H6.6C6.6 9.29868 8.30132 11 10.4 11V9.8ZM7.8 7.2C7.8 5.76406 8.96406 4.6 10.4 4.6V3.4C8.30132 3.4 6.6 5.10132 6.6 7.2H7.8ZM10.4 4.6C11.8359 4.6 13 5.76406 13 7.2H14.2C14.2 5.10132 12.4987 3.4 10.4 3.4V4.6ZM16.2 16.4C16.2 17.4462 16.1677 18.0352 15.6211 18.4803C15.3247 18.7217 14.8292 18.9573 13.981 19.129C13.1354 19.3002 11.9794 19.4 10.4 19.4V20.6C12.0206 20.6 13.2646 20.4984 14.219 20.3052C15.1708 20.1125 15.8753 19.8209 16.3789 19.4108C17.4323 18.553 17.4 17.342 17.4 16.4H16.2ZM10.4 19.4C8.82062 19.4 7.66459 19.3002 6.81903 19.129C5.97082 18.9573 5.4753 18.7217 5.17887 18.4803C4.63225 18.0352 4.6 17.4462 4.6 16.4H3.4C3.4 17.342 3.36775 18.553 4.42113 19.4108C4.9247 19.8209 5.62918 20.1125 6.58097 20.3052C7.53541 20.4984 8.77938 20.6 10.4 20.6V19.4ZM4.6 16.4C4.6 15.7189 5.0971 14.9801 6.16867 14.3774C7.22144 13.7852 8.71622 13.4 10.4 13.4V12.2C8.54916 12.2 6.84394 12.6207 5.58036 13.3315C4.33559 14.0317 3.4 15.0928 3.4 16.4H4.6ZM10.4 13.4C12.0838 13.4 13.5786 13.7852 14.6313 14.3774C15.7029 14.9801 16.2 15.7189 16.2 16.4H17.4C17.4 15.0928 16.4644 14.0317 15.2196 13.3315C13.9561 12.6207 12.2508 12.2 10.4 12.2V13.4ZM15.5757 10.9243L17.5757 12.9243L18.4243 12.0757L16.4243 10.0757L15.5757 10.9243ZM18.4243 12.9243L21.9243 9.42426L21.0757 8.57574L17.5757 12.0757L18.4243 12.9243Z" fill="#0166FF"/>
</g>
</svg>

<svg xmlns="http://www.w3.org/2000/svg" width="24" height="24" fill="none"><path fill="#0166FF" d="M16.424 10.076a.6.6 0 0 0-.848.848zM18 12.5l-.424.424a.6.6 0 0 0 .848 0zm3.924-3.076a.6.6 0 1 0-.848-.848zM13 7.2a2.6 2.6 0 0 1-2.6 2.6V11a3.8 3.8 0 0 0 3.8-3.8zm-2.6 2.6a2.6 2.6 0 0 1-2.6-2.6H6.6a3.8 3.8 0 0 0 3.8 3.8zM7.8 7.2a2.6 2.6 0 0 1 2.6-2.6V3.4a3.8 3.8 0 0 0-3.8 3.8zm2.6-2.6A2.6 2.6 0 0 1 13 7.2h1.2a3.8 3.8 0 0 0-3.8-3.8zm5.8 11.8c0 1.046-.032 1.635-.579 2.08-.296.242-.792.477-1.64.649-.846.171-2.002.271-3.581.271v1.2c1.62 0 2.865-.102 3.819-.295.952-.192 1.656-.484 2.16-.894 1.053-.858 1.021-2.069 1.021-3.011zm-5.8 3c-1.58 0-2.735-.1-3.581-.271-.848-.172-1.344-.407-1.64-.649-.547-.445-.579-1.034-.579-2.08H3.4c0 .942-.032 2.153 1.021 3.01.504.41 1.208.703 2.16.895.954.193 2.198.295 3.819.295zm-5.8-3c0-.681.497-1.42 1.569-2.023 1.052-.592 2.547-.977 4.231-.977v-1.2c-1.85 0-3.556.42-4.82 1.132-1.244.7-2.18 1.76-2.18 3.068zm5.8-3c1.684 0 3.179.385 4.231.977 1.072.603 1.569 1.342 1.569 2.023h1.2c0-1.307-.936-2.368-2.18-3.068-1.264-.711-2.97-1.132-4.82-1.132zm5.176-2.476 2 2 .848-.848-2-2zm2.848 2 3.5-3.5-.848-.848-3.5 3.5z"/></svg>
